azure-patterns/ai.svg

<svg xmlns="http://www.w3.org/2000/svg" viewBox="0 0 52 58"><path d="M25.832 0C11.567 0 .002 11.415 0 25.497V57.94h42.872V40.411h8.79V25.497c0-6.763-2.722-13.248-7.566-18.03C39.252 2.686 32.682 0 25.832 0z" fill="#0072C6"/><g transform="translate(6 9)" stroke="#FFF" stroke-width="1.129"><ellipse cx="9.133" cy="25.964" rx="1.686" ry="1.657"/><ellipse cx="24.103" cy="10.587" rx="1.686" ry="1.657"/><ellipse cx="2.12" cy="17.215" rx="1.686" ry="1.657"/><ellipse cx="6.031" cy="6.345" rx="1.686" ry="1.657"/><ellipse cx="14.797" cy="1.706" rx="1.686" ry="1.657"/><ellipse cx="29.161" cy="2.965" rx="1.686" ry="1.657"/><ellipse cx="36.511" cy="10.72" rx="1.686" ry="1.657"/><ellipse cx="34.084" cy="19.469" rx="1.686" ry="1.657"/><ellipse cx="26.936" cy="22.65" rx="1.686" ry="1.657"/><ellipse cx="16.011" cy="20.264" rx="1.686" ry="1.657"/><ellipse cx="14.123" cy="12.045" rx="1.686" ry="1.657"/><ellipse fill="#0072C6" cx="20.732" cy="27.687" rx="1.686" ry="1.657"/><path d="M22.148 26.76l3.91-3.05m2.563-1.06l4.181-2.254m2.428-2.386l1.281-5.633m-33.38 6.561l5.125 5.7m-6.136-9.08l3.034-8.02m2.023-2.386l5.934-2.518m3.372-.928l11.06 1.193m2.832 1.061l5.8 5.567m-1.35 1.193l-9.036-.133M24.71 8.996l3.372-4.772m-13.959 6.164l1.416-7.49m.27 9.147l6.743-.928m-10.115.928l-4.855-4.64m16.993 4.773l1.619 9.014m-8.497-.928l7.553 2.386m-8.093-3.977l6.204-6.893m-7.957 7.29l-.54-5.567m-1.887-.663l-9.172 3.845M3.4 18.143l10.925 2.12m18.342-2.12l-7.282-6.628M9.133 33.607v-5.986m1.416-2.851l4.316-3.313m1.146.463l3.709 5.104"/><ellipse fill="#0072C6" cx="9.133" cy="33.607" rx="1.686" ry="1.657"/></g></svg>

<svg xmlns="http://www.w3.org/2000/svg" viewBox="0 0 52 58"><path d="M25.832 0C11.567 0 .002 11.415 0 25.497V57.94h42.872V40.411h8.79V25.497c0-6.763-2.722-13.248-7.566-18.03C39.252 2.686 32.682 0 25.832 0z" fill="#0072C6"/><g transform="translate(6 9)" stroke="#FFF" stroke-width="1.129"><ellipse cx="9.133" cy="25.964" rx="1.686" ry="1.657"/><ellipse cx="24.103" cy="10.587" rx="1.686" ry="1.657"/><ellipse cx="2.12" cy="17.215" rx="1.686" ry="1.657"/><ellipse cx="6.031" cy="6.345" rx="1.686" ry="1.657"/><ellipse cx="14.797" cy="1.706" rx="1.686" ry="1.657"/><ellipse cx="29.161" cy="2.965" rx="1.686" ry="1.657"/><ellipse cx="36.511" cy="10.72" rx="1.686" ry="1.657"/><ellipse cx="34.084" cy="19.469" rx="1.686" ry="1.657"/><ellipse cx="26.936" cy="22.65" rx="1.686" ry="1.657"/><ellipse cx="16.011" cy="20.264" rx="1.686" ry="1.657"/><ellipse cx="14.123" cy="12.045" rx="1.686" ry="1.657"/><ellipse fill="#0072C6" cx="20.732" cy="27.687" rx="1.686" ry="1.657"/><path d="M22.148 26.76l3.91-3.05M28.621 22.65l4.181-2.254M35.23 18.01l1.281-5.633M3.131 18.938l5.125 5.7M2.12 15.558l3.034-8.02M7.177 5.152l5.934-2.518M16.483 1.706l11.06 1.193M30.375 3.96l5.8 5.567M34.825 10.72l-9.036-.133M24.71 8.996l3.372-4.772M14.123 10.388l1.416-7.49M15.809 12.045l6.743-.928M12.437 12.045l-4.855-4.64M24.575 12.178l1.619 9.014M17.697 20.264l7.553 2.386M17.157 18.673l6.204-6.893M15.404 19.07l-.54-5.567M12.977 12.84l-9.172 3.845M3.4 18.143l10.925 2.12M32.667 18.143l-7.282-6.628M9.133 33.607v-5.986M10.549 24.77l4.316-3.313M16.011 21.92l3.709 5.104"/><ellipse fill="#0072C6" cx="9.133" cy="33.607" rx="1.686" ry="1.657"/></g></svg>
